X: 139
T: The Traveler
T: Reel, G
L: 1/16
M: 2/2
K: G
|: D2| G4B2G2 d2G2B2G2| A2B2c2d2 c2B2A2G2| B2d2g2d2 e2g2d2B2| c2B2A2G2 F2A2D2F2| 
G4B2G2 d2G2B2G2| A2B2c2d2 c2B2A2G2| B2d2g2d2 e2g2d2B2| c2B2A2F2 G4:| 
|: e2f2| g4d2g2 B2g2d2g2| g4b2g2 a2g2e2f2| g4d2g2 B2g2d2B2| c2B2A2G2 F2A2D2f2| 
g4d2g2 B2g2d2g2| g4b2g2 a2g2e2f2| g2f2g2a2 g2f2e2d2| e2g2f2a2 g4:|
